packages/foundations/assets/icons/functional/images/editing/pin_20.svg

<svg width="20" height="20" viewBox="0 0 20 20" fill="none" xmlns="http://www.w3.org/2000/svg">
<g clip-path="url(#clip0_2622_98)">
<path fill-rule="evenodd" clip-rule="evenodd" d="M11.997 1.66907L18.314 7.90907C18.5055 8.09658 18.618 8.3502 18.6285 8.61797C18.639 8.88574 18.5468 9.1474 18.3706 9.34936C18.1945 9.55132 17.9478 9.67828 17.6811 9.70426C17.4144 9.73024 17.1478 9.65325 16.936 9.48907L16.409 8.97907L13.929 11.4351C14.167 11.8231 14.329 12.2351 14.412 12.6661C14.694 14.1161 14.11 15.5381 13.018 16.8961C12.6054 17.4162 12.1407 17.8926 11.631 18.3181C11.4477 18.4665 11.2198 18.5489 10.984 18.552C10.7481 18.5551 10.5181 18.4787 10.331 18.3351L6.69503 14.7481L3.22703 18.1821C3.03721 18.3699 2.78297 18.4783 2.51605 18.4853C2.24913 18.4923 1.98957 18.3973 1.79018 18.2197C1.59079 18.0421 1.46656 17.7952 1.44275 17.5292C1.41895 17.2633 1.49735 16.9983 1.66203 16.7881L5.20203 13.2701L1.68203 9.78707C1.49554 9.60248 1.38492 9.35475 1.37197 9.09267C1.35901 8.83059 1.44465 8.57316 1.61203 8.37107C1.90703 8.01407 2.40203 7.50707 3.04803 6.99807C4.41603 5.92007 5.84603 5.34507 7.29903 5.62107C7.73903 5.70507 8.15903 5.86707 8.55403 6.10707L11.031 3.65607L10.619 3.24807C10.4276 3.06056 10.3151 2.80695 10.3046 2.53918C10.294 2.27141 10.3863 2.00975 10.5624 1.80779C10.7386 1.60583 10.9852 1.47886 11.252 1.45288C11.5187 1.42691 11.7852 1.50489 11.997 1.66907ZM12.524 5.13307L9.37703 8.24807C9.17969 8.44114 8.9146 8.54925 8.63853 8.54925C8.36246 8.54925 8.09736 8.44114 7.90003 8.24807C7.57303 7.92507 7.25003 7.73407 6.90703 7.68407C6.07403 7.56307 5.07203 8.01107 3.90103 9.02807L10.983 16.0371C12.01 14.9371 12.466 13.9471 12.351 13.0671C12.313 12.7801 12.158 12.5071 11.915 12.2321C11.763 12.1031 11.079 11.4351 11.785 10.6021C12.8252 9.56519 13.8689 8.53185 14.916 7.50207L12.524 5.13307Z" fill="#282D37"/>
</g>
<defs>
<clipPath id="clip0_2622_98">
<rect width="20" height="20" fill="white"/>
</clipPath>
</defs>
</svg>

<svg xmlns="http://www.w3.org/2000/svg" width="20" height="20" fill="none"><g clip-path="url(#a)"><path fill="#282D37" fill-rule="evenodd" d="m11.997 1.67 6.317 6.24a1.05 1.05 0 0 1-1.378 1.58l-.527-.51-2.48 2.455q.358.583.483 1.231c.282 1.45-.302 2.872-1.394 4.23-.413.52-.877.997-1.387 1.422a1.05 1.05 0 0 1-1.3.017l-3.636-3.587-3.468 3.434a1.05 1.05 0 0 1-1.565-1.394l3.54-3.518-3.52-3.483a1.05 1.05 0 0 1-.07-1.416c.295-.357.79-.864 1.436-1.373C4.416 5.92 5.846 5.345 7.299 5.621q.661.126 1.255.486l2.477-2.45-.412-.409a1.05 1.05 0 0 1 1.378-1.579m.527 3.463L9.377 8.248a1.056 1.056 0 0 1-1.477 0c-.327-.323-.65-.514-.993-.564q-1.25-.18-3.006 1.344l7.082 7.01q1.54-1.65 1.368-2.97c-.038-.288-.193-.56-.436-.836-.152-.129-.836-.797-.13-1.63a652 652 0 0 1 3.131-3.1z" clip-rule="evenodd"/></g><defs><clipPath id="a"><path fill="#fff" d="M0 0h20v20H0z"/></clipPath></defs></svg>
